frontend/public/svg/interface/pin.svg

<svg width="157" height="155" viewBox="0 0 157 155" fill="none" xmlns="http://www.w3.org/2000/svg">
<g clip-path="url(#clip0)">
<path d="M4.28767 154.934C4.86244 154.926 5.42763 154.786 5.93896 154.522C6.77915 154.119 7.57207 153.624 8.30346 153.046C9.68027 151.931 11.026 150.743 12.3277 149.594L20.7977 142.12C30.6969 133.387 40.9334 124.356 50.9763 115.445C51.5589 114.926 52.1557 114.423 52.7538 113.917C54.9216 112.081 57.1555 110.19 58.8385 107.621C59.6152 108.626 60.3816 109.624 61.137 110.613C63.2693 113.401 65.2798 116.036 67.5012 118.573C70.5998 122.114 73.9153 125.559 77.1214 128.89C78.0115 129.814 78.9002 130.739 79.787 131.666C81.3593 133.311 83.3692 133.551 85.447 132.344L85.6263 132.24C86.3785 131.833 87.0931 131.36 87.7624 130.827C100.859 119.775 106.081 106.529 103.708 90.3497C105.448 89.9723 107.174 89.6 108.887 89.2329C113.31 88.2815 117.487 87.3826 121.746 86.4338C129.611 84.6828 138.912 82.5971 148.269 80.4167C149.948 80.0471 151.568 79.4472 153.084 78.6346C156.494 76.748 157.623 72.777 155.771 69.1945C150.722 59.4253 144.235 49.8808 135.366 39.1592C130.894 33.7511 126.232 28.3515 121.725 23.1289C119.573 20.6359 117.426 18.1397 115.282 15.6403C114.181 14.3516 113.093 13.0507 112.006 11.7491C109.786 9.09008 107.49 6.34605 105.102 3.7545C103.056 1.53197 100.995 0.482769 98.9692 0.64166C96.8978 0.801849 94.9443 2.22199 93.1739 4.86347C86.9397 14.1641 82.0202 24.0266 76.5511 35.9732C74.8681 39.6452 73.2195 43.3769 71.6239 46.986C70.9533 48.4992 70.2859 50.0046 69.6218 51.5023C67.9155 51.6547 66.1911 51.7831 64.5211 51.907C60.5266 52.2034 56.3955 52.5107 52.3926 53.167C43.7474 54.6442 35.5783 58.1651 28.5628 63.4378C26.0856 65.2598 25.7432 67.029 27.3407 69.7464C27.7014 70.3495 28.1129 70.9209 28.5705 71.454C34.637 78.6598 40.7098 85.8599 46.7889 93.0547C48.4887 95.0652 50.195 97.0757 51.9266 99.1088L53.8814 101.408C53.4154 101.76 52.9571 102.101 52.5065 102.435C51.1692 103.427 49.9057 104.365 48.7224 105.418L48.653 105.479C41.8376 111.548 34.7899 117.824 27.9757 124.129C21.5674 130.06 15.1242 136.169 8.89387 142.077L3.7698 146.933C2.89528 147.708 2.13101 148.6 1.49839 149.584C1.07126 150.216 0.870696 150.975 0.929472 151.737C0.988249 152.499 1.3029 153.218 1.82204 153.778C2.12781 154.134 2.50574 154.422 2.9308 154.622C3.35586 154.821 3.8184 154.927 4.28767 154.934ZM91.274 108.209C90.3756 112.803 86.9876 118.874 82.7646 123.507C73.9846 114.222 65.9884 104.082 58.2519 94.2707C51.2928 85.4455 44.1013 76.3258 36.3136 67.7846C39.9762 65.5186 44.0432 63.9874 48.2887 63.2757C52.7318 62.5967 57.2939 62.1428 61.706 61.7031C63.5974 61.5144 65.4887 61.3264 67.3776 61.1195C67.5828 61.0974 67.7452 61.1141 68.0378 61.1005C75.1685 60.7717 75.4637 60.5765 78.5649 54.1392C80.468 50.1896 82.3568 46.2337 84.232 42.2711C87.2867 35.8422 90.4461 29.1947 93.6458 22.7061C95.0698 19.8221 96.6933 17.0786 98.4138 14.1725C99.043 13.1102 99.6793 12.0324 100.313 10.9416C113.95 27.6381 126.015 44.5974 138.778 62.5378C140.912 65.538 143.055 68.5453 145.205 71.5597C144.149 71.8269 143.118 72.0915 142.104 72.3502C139.311 73.0636 136.673 73.7413 134.013 74.3568L130.53 75.1629C120.339 77.5236 109.801 79.9621 99.4087 82.2235C96.1424 82.9369 94.3345 84.8709 93.8814 88.1453C93.6665 89.7018 93.5008 91.2849 93.3402 92.8148C93.2056 94.1034 93.0664 95.4362 92.8988 96.7384C92.7874 97.6029 92.6813 98.4681 92.5751 99.3326C92.2165 102.257 91.8456 105.284 91.274 108.206V108.209Z" fill="black"/>
</g>
<defs>
<clipPath id="clip0">
<rect width="156" height="155" fill="white" transform="translate(0.777344)"/>
</clipPath>
</defs>
</svg>

<svg xmlns="http://www.w3.org/2000/svg" width="157" height="155" fill="none" viewBox="0 0 157 155"><g clip-path="url(#a)"><path fill="#000" d="M4.288 154.934a3.7 3.7 0 0 0 1.651-.412c.84-.403 1.633-.898 2.364-1.476 1.377-1.115 2.723-2.303 4.025-3.452l8.47-7.474c9.899-8.733 20.135-17.764 30.178-26.675.583-.519 1.18-1.022 1.778-1.528 2.168-1.836 4.402-3.727 6.085-6.296a664 664 0 0 1 2.298 2.992c2.132 2.788 4.143 5.423 6.364 7.96 3.099 3.541 6.414 6.986 9.62 10.317q1.336 1.386 2.666 2.776c1.572 1.645 3.582 1.885 5.66.678l.18-.104q1.13-.612 2.135-1.413c13.097-11.052 18.319-24.298 15.946-40.477q2.61-.567 5.179-1.117c4.423-.952 8.6-1.85 12.859-2.8a2776 2776 0 0 0 26.523-6.016 18.7 18.7 0 0 0 4.815-1.782c3.41-1.887 4.539-5.858 2.687-9.44-5.049-9.77-11.536-19.314-20.405-30.036-4.472-5.408-9.134-10.807-13.641-16.03q-3.227-3.74-6.443-7.489a454 454 0 0 1-3.276-3.89c-2.22-2.66-4.516-5.404-6.904-7.995-2.046-2.223-4.107-3.272-6.133-3.113-2.071.16-4.025 1.58-5.795 4.221-6.234 9.301-11.154 19.164-16.623 31.11-1.683 3.672-3.332 7.404-4.927 11.013l-2.002 4.516c-1.707.153-3.43.281-5.1.405-3.995.296-8.127.604-12.13 1.26a55.1 55.1 0 0 0-23.83 10.27c-2.476 1.823-2.819 3.592-1.221 6.31q.541.906 1.23 1.707 9.1 10.809 18.218 21.6c1.7 2.011 3.406 4.022 5.138 6.055l1.954 2.299q-.699.527-1.374 1.027c-1.338.992-2.601 1.93-3.785 2.983l-.069.061c-6.815 6.069-13.863 12.345-20.677 18.65-6.409 5.931-12.852 12.04-19.082 17.948l-5.124 4.856a12.8 12.8 0 0 0-2.272 2.651 3.38 3.38 0 0 0 .324 4.194 3.32 3.32 0 0 0 2.466 1.156m86.986-46.725c-.898 4.594-4.286 10.665-8.51 15.298-8.78-9.285-16.776-19.425-24.512-29.236-6.96-8.826-14.15-17.945-21.938-26.486a33.2 33.2 0 0 1 11.975-4.51c4.443-.678 9.005-1.132 13.417-1.572 1.891-.189 3.783-.377 5.672-.584.205-.022.367-.005.66-.019 7.13-.328 7.426-.523 10.527-6.96a1873 1873 0 0 0 5.667-11.869c3.055-6.429 6.214-13.076 9.414-19.565 1.424-2.884 3.047-5.627 4.768-8.533.629-1.063 1.265-2.14 1.899-3.231 13.637 16.696 25.702 33.655 38.465 51.596q3.201 4.5 6.427 9.022c-1.056.267-2.087.531-3.101.79-2.793.714-5.431 1.391-8.091 2.007l-3.483.806c-10.191 2.36-20.729 4.8-31.121 7.06-3.267.714-5.074 2.648-5.528 5.922-.215 1.557-.38 3.14-.54 4.67a172 172 0 0 1-.442 3.923q-.166 1.298-.324 2.595c-.359 2.924-.73 5.951-1.301 8.873z"/></g><defs><clipPath id="a"><path fill="#fff" d="M.777 0h156v155h-156z"/></clipPath></defs></svg>
